plasma/desktoptheme/Materia-Color/icons/lutris.svg

<svg xmlns="http://www.w3.org/2000/svg" width="32" height="32" version="1.1">
 <defs id="materia">
  <style id="current-color-scheme" type="text/css">
   .ColorScheme-Background {color:#181818; } .ColorScheme-ButtonBackground { color:#343434; } .ColorScheme-Highlight { color:#4285f4; } .ColorScheme-Text { color:#dfdfdf; } .ColorScheme-ViewBackground { color:#242424; } .ColorScheme-NegativeText { color:#f44336; } .ColorScheme-PositiveText { color:#4caf50; } .ColorScheme-NeutralText { color:#ff9800; }
  </style>
 </defs>
 <g id="22-22-lutris" transform="translate(32,10)">
  <rect style="opacity:0.001" width="22" height="22" x="0" y="0"/>
  <path style="fill:currentColor" class="ColorScheme-Text" d="M 10.74648,3 C 6.5616824,2.99625 3.1127093,6.4426505 3.0027025,10.791016 2.8908177,15.208404 6.266939,18.884506 10.541412,19 c 3.45866,0.002 6.458715,-1.99765 7.185209,-5.257812 -1.072557,1.781235 -3.082126,2.333415 -4.876724,2.328124 -1.476971,-0.01224 -3.1164697,-0.356705 -4.3767477,-1.048828 -1.6464769,-0.911001 -1.5263937,-2.050513 -1.4725872,-2.847656 0.031089,-0.459186 0.2552824,-1.236413 0.8495696,-1.988281 0.192502,0.07091 0.3789271,0.155046 0.5448963,0.271484 0.4095878,0.276586 0.779476,0.690649 1.3046265,0.503907 C 10.058683,10.834994 10.0775,10.620219 9.9398775,10.269531 9.823659,9.9843942 9.63254,9.4934669 9.3949811,9.3046875 9.3004556,9.2298685 9.1622927,9.1832643 9.0141397,9.1425781 9.2654439,8.9823566 9.5388107,8.83116 9.851991,8.6992188 10.725887,8.3905772 11.694766,8.214942 12.63311,8.2265625 c 0.191785,0.2924412 0.36378,0.5935439 0.667937,0.7109375 0.508061,0.2064296 0.718609,-0.1307116 0.699187,-0.5410156 0.04719,0.013443 0.09601,0.022113 0.142571,0.037109 1.004669,0.2267407 1.728072,0.5180353 2.683468,0.8554687 0,0 -0.0082,0.016614 0.255847,0.082031 0.773302,0.1225117 1.224281,-0.093624 1.49993,-0.3828126 0.06638,-0.00381 0.129729,-0.027928 0.187491,-0.099609 0.104435,-0.1295163 0.302868,-0.3184787 0.189444,-0.5996094 0.03613,-0.1525268 0.04101,-0.2597656 0.04101,-0.2597656 l -0.05273,-0.2988281 -0.162102,-0.4042969 -0.07617,-0.171875 -0.01562,-0.03125 C 18.771739,7.0585549 18.83149,6.9496881 18.841804,6.8144531 18.858293,6.6000209 18.751008,6.414026 18.60158,6.3886719 18.601255,6.1509994 18.587078,5.8793655 18.54299,5.5097656 18.482193,4.9998633 18.147582,4.7980076 18.039107,4.71875 17.930389,4.639635 17.422945,4.2569446 16.937596,4.0664062 16.451949,3.875866 15.962175,3.7350873 15.357592,3.8203125 c -0.06713,0.00949 -0.131072,0.019368 -0.197257,0.029297 -0.01172,-0.00372 -0.02052,-0.00796 -0.0332,-0.011719 -0.230544,-0.068484 -0.393663,-0.4420136 -0.582004,-0.4375 -0.01441,3.457e-4 -0.03017,0.00236 -0.04492,0.00391 -0.01452,0.00152 -0.02803,0.00307 -0.04297,0.00586 h -0.002 c -0.01522,0.00284 -0.02919,0.00745 -0.04492,0.011719 -0.01718,0.00466 -0.03528,0.010376 -0.05078,0.017578 -0.11022,0.051252 -0.176991,0.2445701 -0.21874,0.3710938 C 13.173903,3.321627 12.092337,3.0348136 10.945689,3.0039062 10.878903,3.0020963 10.812905,3.00006 10.74648,3 Z m 5.693092,3.0039062 c 0.126994,-0.015117 0.260373,0.018183 0.369124,0.1035157 0.217747,0.1710387 0.255482,0.4841558 0.08593,0.7011719 -0.170042,0.2170151 -0.483516,0.2543995 -0.701139,0.083984 -0.217625,-0.1712882 -0.258047,-0.484031 -0.08789,-0.7011719 0.08484,-0.1083204 0.206974,-0.1723825 0.333968,-0.1875 z"/>
  <path style="opacity:0.35;fill:currentColor" class="ColorScheme-Text" d="m 12.322581,9.2781112 c -0.538112,0.019536 -1.077175,0.130022 -1.605394,0.2734707 0.05261,0.1210992 0.116987,0.2646962 0.148431,0.3418385 a 1.0000531,1.0002218 0 0 1 0.0059,0.01172 c 0.09985,0.2544336 0.232915,0.5903186 0.0957,1.0704436 -0.136932,0.47912 -0.593782,0.807271 -0.935505,0.927847 -0.5510901,0.194101 -1.1579731,0.04918 -1.5077411,-0.142596 -0.121435,-0.06658 -0.148347,-0.101499 -0.238271,-0.164082 -0.07932,0.223321 -0.280519,0.547281 -0.287095,0.642656 -0.02812,0.416524 -0.04214,0.731782 0.04687,0.994263 0.08873,0.261637 0.253777,0.547005 0.90816,0.910267 l 0.0039,0.002 c 1.0622411,0.582278 2.5739141,0.912946 3.9002081,0.92394 1.586006,0.0039 3.177237,-0.458495 4.011531,-1.843974 a 1.0000531,1.0002218 0 0 1 1.074164,-0.462994 5.9995838,6.0008577 0 0 0 0.05664,-0.761812 5.9995838,6.0008577 0 0 0 -0.230458,-1.631058 c -0.267672,0.03008 -0.547817,0.03711 -0.843711,-0.0098 a 1.0000531,1.0002218 0 0 1 -0.08398,-0.01758 c -0.153558,-0.03804 -0.240601,-0.0609 -0.357405,-0.107431 -0.0047,-0.0019 -0.01668,-0.0099 -0.02148,-0.01172 -0.721985,-0.2555625 -1.294497,-0.4371537 -1.915926,-0.615309 -0.0032,0.00318 -6.06e-4,0.0066 -0.0039,0.00977 -0.418004,0.403551 -1.132705,0.436325 -1.607358,0.2480724 C 12.551367,9.7151061 12.497915,9.4988438 12.322609,9.2781112 Z"/>
 </g>
 <g id="lutris">
  <rect style="opacity:0.001" width="32" height="32" x="0" y="0"/>
  <path style="opacity:0.35;fill:currentColor" class="ColorScheme-Text" d="M 17.277344 12.748047 C 16.826185 12.829586 16.384516 12.937896 15.931641 13.0625 C 16.041431 13.456877 16.109723 13.912562 15.931641 14.529297 C 15.662553 15.461201 14.772608 16.090739 14.136719 16.314453 C 13.237814 16.631802 12.302456 16.436127 11.632812 16.154297 C 11.294505 16.825397 11.091629 17.428449 11.074219 17.685547 C 10.992955 18.889139 10.875099 19.626598 11.650391 20.447266 C 13.197201 21.732962 15.440518 22.337496 17.826172 22.654297 C 21.328238 22.809616 24.104222 21.996008 25.726562 19.271484 A 2.0002 2.0002 0 0 1 27.896484 18.349609 C 27.95725 17.902151 27.997322 17.452246 28 17 C 27.998177 16.214215 27.904346 15.433629 27.728516 14.669922 C 27.278308 14.700994 26.814287 14.699746 26.330078 14.623047 A 2.0002 2.0002 0 0 1 26.162109 14.589844 C 25.889221 14.522228 25.734056 14.482261 25.511719 14.394531 C 25.502069 14.390721 25.476697 14.372841 25.466797 14.369141 C 24.233947 13.929258 23.382091 13.605047 22.462891 13.267578 C 22.167649 13.709662 21.765461 14.137737 21.1875 14.34375 C 20.417263 14.618299 19.646249 14.488426 19.039062 14.244141 C 18.096581 13.872895 17.58889 13.201166 17.277344 12.748047 z"/>
  <path style="fill:currentColor" class="ColorScheme-Text" d="M 15.556641 1.5 C 8.2325577 1.493433 2.196437 7.5263838 2.0039062 15.134766 C 1.8080901 22.863914 7.7162354 29.29206 15.197266 29.494141 C 20.709494 29.431731 26.902155 25.718493 27.445312 20.294922 C 25.360129 23.796733 21.605255 24.846276 17.650391 24.654297 C 15.055308 24.317379 12.319591 23.678957 10.267578 21.921875 C 8.7962345 20.446034 9.0016105 18.684032 9.078125 17.550781 C 9.1410159 16.622148 9.6102652 14.957757 11.041016 13.46875 C 11.089139 13.499256 11.144845 13.518124 11.191406 13.550781 C 11.908252 14.034726 12.553557 14.756434 13.472656 14.429688 C 14.101017 14.209323 14.135395 13.836258 13.894531 13.222656 C 13.738362 12.839602 13.503494 12.247819 13.214844 11.841797 C 13.243744 11.82655 13.269422 11.809974 13.298828 11.794922 L 13.300781 11.792969 C 13.417704 11.733149 13.546765 11.679962 13.669922 11.623047 C 13.776615 11.573917 13.877159 11.521413 13.988281 11.474609 C 15.289939 11.015012 16.71632 10.645651 18.125 10.515625 C 18.728933 11.13374 19.012589 12.095536 19.777344 12.390625 C 20.999496 12.887068 21.244675 11.587986 20.802734 10.626953 C 21.037945 10.676099 21.272691 10.727599 21.5 10.800781 C 23.258335 11.197511 24.523212 11.915448 26.195312 12.505859 C 26.195312 12.505859 26.180622 12.533975 26.642578 12.648438 C 28.888034 13.00412 29.62096 11.76004 29.867188 10.949219 C 29.767176 11.093476 29.634488 11.215857 29.539062 11.314453 C 29.226374 11.637735 28.859765 11.520882 28.390625 11.099609 C 27.921699 10.678552 27.828365 9.9268313 28.369141 9.8945312 C 28.910129 9.8626524 29.025391 9.5 29.025391 9.5 C 29.665756 9.88426 29.91592 10.197152 29.976562 10.458984 C 29.980486 10.417192 30 10.300781 30 10.300781 L 29.908203 9.7792969 L 29.625 9.0722656 L 29.490234 8.7695312 L 29.462891 8.7148438 C 29.376497 8.785894 29.27933 8.8316063 29.173828 8.8203125 C 28.901017 8.7918375 28.704266 8.4567773 28.734375 8.0703125 C 28.764025 7.6850971 29.008439 7.3970525 29.28125 7.4257812 C 29.28891 7.4266089 29.295197 7.4322899 29.302734 7.4335938 C 29.302213 7.0171529 29.278539 6.5412056 29.201172 5.8925781 C 29.09476 5.0003965 28.508202 4.2460997 28.318359 4.1074219 C 28.128082 3.9689941 27.242021 3.3001831 26.392578 2.9667969 C 25.542616 2.6334063 24.68312 2.38799 23.625 2.5371094 C 23.507515 2.5537224 23.397084 2.5705166 23.28125 2.5878906 C 23.26074 2.5813806 23.242893 2.5749394 23.220703 2.5683594 C 22.817216 2.4485325 22.532751 1.4940555 22.203125 1.5019531 C 22.177895 1.502558 22.152773 1.5051025 22.126953 1.5078125 C 22.101533 1.5104725 22.074968 1.5146526 22.048828 1.5195312 L 22.046875 1.5195312 C 22.020235 1.5245012 21.994327 1.5296454 21.966797 1.5371094 C 21.936737 1.5452694 21.907969 1.5577105 21.880859 1.5703125 C 21.687957 1.6599885 21.569161 2.6965891 21.496094 2.9179688 C 19.803684 2.0624939 17.911119 1.5599385 15.904297 1.5058594 C 15.787409 1.5026994 15.672896 1.50011 15.556641 1.5 z M 24.876953 6.5078125 C 25.130964 6.4775814 25.397712 6.5442001 25.615234 6.7148438 C 26.050769 7.0568796 26.128197 7.6851614 25.789062 8.1191406 C 25.448947 8.5531186 24.820056 8.6278968 24.384766 8.2871094 C 23.949477 7.9445748 23.872529 7.315088 24.212891 6.8808594 C 24.382581 6.6642447 24.622942 6.5380436 24.876953 6.5078125 z"/>
 </g>
</svg>

<?xml version="1.0" encoding="UTF-8"?>
<svg width="32" height="32" version="1.1" xmlns="http://www.w3.org/2000/svg">
 <defs id="materia">
  <style id="current-color-scheme" type="text/css">.ColorScheme-Background {color:#181818; } .ColorScheme-ButtonBackground { color:#343434; } .ColorScheme-Highlight { color:#4285f4; } .ColorScheme-Text { color:#dfdfdf; } .ColorScheme-ViewBackground { color:#242424; } .ColorScheme-NegativeText { color:#f44336; } .ColorScheme-PositiveText { color:#4caf50; } .ColorScheme-NeutralText { color:#ff9800; }</style>
 </defs>
 <g id="22-22-lutris" transform="translate(32,10)">
  <rect width="22" height="22" opacity=".001"/>
  <path class="ColorScheme-Text" d="m10.746 3c-4.1848-0.00375-7.6338 3.4427-7.7438 7.791-0.11188 4.4174 3.2642 8.0935 7.5387 8.209 3.4587 2e-3 6.4587-1.9976 7.1852-5.2578-1.0726 1.7812-3.0821 2.3334-4.8767 2.3281-1.477-0.01224-3.1165-0.3567-4.3767-1.0488-1.6465-0.911-1.5264-2.0505-1.4726-2.8477 0.031089-0.45919 0.25528-1.2364 0.84957-1.9883 0.1925 0.07091 0.37893 0.15505 0.5449 0.27148 0.40959 0.27659 0.77948 0.69065 1.3046 0.50391 0.35903-0.12594 0.37785-0.34072 0.24022-0.69141-0.11622-0.28514-0.30734-0.77606-0.5449-0.96484-0.094526-0.074819-0.23269-0.12142-0.38084-0.16211 0.2513-0.16022 0.52467-0.31142 0.83785-0.44336 0.8739-0.30864 1.8428-0.48428 2.7811-0.47266 0.19178 0.29244 0.36378 0.59354 0.66794 0.71094 0.50806 0.20643 0.71861-0.13071 0.69919-0.54102 0.04719 0.013443 0.09601 0.022113 0.14257 0.037109 1.0047 0.22674 1.7281 0.51804 2.6835 0.85547 0 0-0.0082 0.016614 0.25585 0.082031 0.7733 0.12251 1.2243-0.093624 1.4999-0.38281 0.06638-0.00381 0.12973-0.027928 0.18749-0.099609 0.10444-0.12952 0.30287-0.31848 0.18944-0.59961 0.03613-0.15253 0.04101-0.25977 0.04101-0.25977l-0.05273-0.29883-0.1621-0.4043-0.07617-0.17188-0.01562-0.03125c0.078366-0.064492 0.13812-0.17336 0.14843-0.30859 0.016489-0.21443-0.090796-0.40043-0.24022-0.42578-3.25e-4 -0.23767-0.014502-0.50931-0.05859-0.87891-0.060797-0.5099-0.39541-0.71176-0.50388-0.79102-0.10872-0.079115-0.61616-0.46181-1.1015-0.65234-0.48565-0.19054-0.97542-0.33132-1.58-0.24609-0.06713 0.00949-0.13107 0.019368-0.19726 0.029297-0.01172-0.00372-0.02052-0.00796-0.0332-0.011719-0.23054-0.068484-0.39366-0.44201-0.582-0.4375-0.01441 3.457e-4 -0.03017 0.00236-0.04492 0.00391-0.01452 0.00152-0.02803 0.00307-0.04297 0.00586h-2e-3c-0.01522 0.00284-0.02919 0.00745-0.04492 0.011719-0.01718 0.00466-0.03528 0.010376-0.05078 0.017578-0.11022 0.051252-0.17699 0.24457-0.21874 0.37109-0.9669-0.48892-2.0485-0.77574-3.1951-0.80665-0.066786-0.0018099-0.13278-0.0038462-0.19921-0.0039062zm5.6931 3.0039c0.12699-0.015117 0.26037 0.018183 0.36912 0.10352 0.21775 0.17104 0.25548 0.48416 0.08593 0.70117-0.17004 0.21702-0.48352 0.2544-0.70114 0.083984-0.21762-0.17129-0.25805-0.48403-0.08789-0.70117 0.08484-0.10832 0.20697-0.17238 0.33397-0.1875z" fill="currentColor"/>
  <path class="ColorScheme-Text" d="m12.323 9.2781c-0.53811 0.019536-1.0772 0.13002-1.6054 0.27347 0.05261 0.1211 0.11699 0.2647 0.14843 0.34184a1.0001 1.0002 0 0 1 0.0059 0.01172c0.09985 0.25443 0.23292 0.59032 0.0957 1.0704-0.13693 0.47912-0.59378 0.80727-0.9355 0.92785-0.55109 0.1941-1.158 0.04918-1.5077-0.1426-0.12144-0.06658-0.14835-0.1015-0.23827-0.16408-0.07932 0.22332-0.28052 0.54728-0.2871 0.64266-0.02812 0.41652-0.04214 0.73178 0.04687 0.99426 0.08873 0.26164 0.25378 0.547 0.90816 0.91027l0.0039 2e-3c1.0622 0.58228 2.5739 0.91295 3.9002 0.92394 1.586 0.0039 3.1772-0.4585 4.0115-1.844a1.0001 1.0002 0 0 1 1.0742-0.46299 5.9996 6.0009 0 0 0 0.05664-0.76181 5.9996 6.0009 0 0 0-0.23046-1.6311c-0.26767 0.03008-0.54782 0.03711-0.84371-0.0098a1.0001 1.0002 0 0 1-0.08398-0.01758c-0.15356-0.03804-0.2406-0.0609-0.3574-0.10743-0.0047-0.0019-0.01668-0.0099-0.02148-0.01172-0.72198-0.25556-1.2945-0.43715-1.9159-0.61531-0.0032 0.00318-6.06e-4 0.0066-0.0039 0.00977-0.418 0.40355-1.1327 0.43632-1.6074 0.24807-0.38449-0.15094-0.43795-0.3672-0.61325-0.58793z" fill="currentColor" opacity=".35"/>
 </g>
 <g id="lutris">
  <rect width="32" height="32" opacity=".001"/>
  <path class="ColorScheme-Text" d="m17.277 12.748c-0.45116 0.081539-0.89283 0.18985-1.3457 0.31445 0.10979 0.39438 0.17808 0.85006 0 1.4668-0.26909 0.9319-1.159 1.5614-1.7949 1.7852-0.8989 0.31735-1.8343 0.12167-2.5039-0.16016-0.33831 0.6711-0.54118 1.2742-0.55859 1.5312-0.081264 1.2036-0.19912 1.9411 0.57617 2.7617 1.5468 1.2857 3.7901 1.8902 6.1758 2.207 3.5021 0.15532 6.278-0.65829 7.9004-3.3828a2.0002 2.0002 0 0 1 2.1699-0.92188c0.060766-0.44746 0.10084-0.89736 0.10352-1.3496-0.001823-0.78578-0.095654-1.5664-0.27148-2.3301-0.45021 0.031072-0.91423 0.029824-1.3984-0.046875a2.0002 2.0002 0 0 1-0.16797-0.033203c-0.27289-0.067616-0.42805-0.10758-0.65039-0.19531-0.00965-0.00381-0.035022-0.02169-0.044922-0.02539-1.2328-0.43988-2.0847-0.76409-3.0039-1.1016-0.29524 0.44208-0.69743 0.87016-1.2754 1.0762-0.77024 0.27455-1.5413 0.14468-2.1484-0.099609-0.94248-0.37125-1.4502-1.043-1.7617-1.4961z" fill="currentColor" opacity=".35"/>
  <path class="ColorScheme-Text" d="m15.557 1.5c-7.3241-0.006567-13.36 6.0264-13.553 13.635-0.19582 7.7291 5.7123 14.157 13.193 14.359 5.5122-0.06241 11.705-3.7756 12.248-9.1992-2.0852 3.5018-5.8401 4.5514-9.7949 4.3594-2.5951-0.33692-5.3308-0.97534-7.3828-2.7324-1.4713-1.4758-1.266-3.2378-1.1895-4.3711 0.062891-0.92863 0.53214-2.593 1.9629-4.082 0.048123 0.030506 0.10383 0.049374 0.15039 0.082031 0.71685 0.48394 1.3622 1.2057 2.2812 0.87891 0.62836-0.22036 0.66274-0.59343 0.42188-1.207-0.15617-0.38305-0.39104-0.97484-0.67969-1.3809 0.0289-0.015247 0.054578-0.031823 0.083984-0.046875l0.001953-0.001953c0.11692-0.05982 0.24598-0.11301 0.36914-0.16992 0.10669-0.04913 0.20724-0.10163 0.31836-0.14844 1.3017-0.4596 2.728-0.82896 4.1367-0.95898 0.60393 0.61812 0.88759 1.5799 1.6523 1.875 1.2222 0.49644 1.4673-0.80264 1.0254-1.7637 0.23521 0.049146 0.46996 0.10065 0.69727 0.17383 1.7583 0.39673 3.0232 1.1147 4.6953 1.7051 0 0-0.01469 0.028116 0.44727 0.14258 2.2455 0.35568 2.9784-0.8884 3.2246-1.6992-0.10001 0.14426-0.2327 0.26664-0.32813 0.36523-0.31269 0.32328-0.6793 0.20643-1.1484-0.21484-0.46893-0.42106-0.56226-1.1728-0.021484-1.2051 0.54099-0.031879 0.65625-0.39453 0.65625-0.39453 0.64036 0.38426 0.89053 0.69715 0.95117 0.95898 0.003924-0.041792 0.023438-0.1582 0.023438-0.1582l-0.091797-0.52148-0.2832-0.70703-0.13477-0.30273-0.027343-0.054687c-0.086394 0.07105-0.18356 0.11676-0.28906 0.10547-0.27281-0.028475-0.46956-0.36354-0.43945-0.75 0.02965-0.38522 0.27406-0.67326 0.54688-0.64453 0.00766 8.277e-4 0.013947 0.0065087 0.021484 0.0078126-5.21e-4 -0.41644-0.024195-0.89239-0.10156-1.541-0.10641-0.89218-0.69297-1.6465-0.88281-1.7852-0.19028-0.13843-1.0763-0.80724-1.9258-1.1406-0.84996-0.33339-1.7095-0.57881-2.7676-0.42969-0.11748 0.016613-0.22792 0.033407-0.34375 0.050781-0.02051-0.00651-0.038357-0.012951-0.060547-0.019531-0.40349-0.11983-0.68795-1.0743-1.0176-1.0664-0.02523 6.049e-4 -0.050352 0.0031494-0.076172 0.0058594-0.02542 0.00266-0.051985 0.0068401-0.078125 0.011719h-0.001953c-0.02664 0.00497-0.052548 0.010114-0.080078 0.017578-0.03006 0.00816-0.058828 0.020601-0.085938 0.033203-0.1929 0.089676-0.3117 1.1263-0.38476 1.3477-1.6924-0.85547-3.585-1.358-5.5918-1.4121-0.11689-0.00316-0.2314-0.0057494-0.34766-0.0058594zm9.3203 5.0078c0.25401-0.030231 0.52076 0.036388 0.73828 0.20703 0.43554 0.34204 0.51296 0.97032 0.17383 1.4043-0.34012 0.43398-0.96901 0.50876-1.4043 0.16797-0.43529-0.34253-0.51224-0.97202-0.17188-1.4062 0.16969-0.21661 0.41005-0.34282 0.66406-0.37305z" fill="currentColor"/>
 </g>
</svg>
